X:1
T:On Joyful Wings
T:Victor H. Benke
T:On Joyful Wings
T:Public Domain
T:Public Domain
C:Victor H. Benke
Z:Public Domain
%%score ( 1 2 ) ( 3 4 )
L:1/8
M:3/4
K:F
V:1 treble 
V:2 treble 
V:3 bass 
V:4 bass 
V:1
 [CA][DB] [CA] | [A,F]3 [CE] [B,D][DF] | [A,C]4 [FA]2 | [EA]3 [EG] [Ec][DB] | %4
w: 1.~On joy- ful|wings our rap- tured|souls Would|mount and spread their|
w: 2.~Sweet vi- sions|oft His love re-|veals, Of|that di- vine a-|
w: 3.~O bless- èd|hope that bears us|up, And|stills each throb of|
 [CA]3 [CA] [=B,^G][CA] | [Ec]3 [EG] [^D^F][EG] [=FA]4 [CA]2 | [=B,G]3 [D=B] [Ge][Fd] | [Ec]3 || %8
w: flight, And from Mount|Pis- gah’s top be- hold The|land of pure de-|light.|
w: bode; And with His|kind, pro- tect- ing hand, He|leads us on the|road.|
w: care! The night will|pass, the morn will come, And|we shall soon be|there.|
"^Refrain" [Ec][EG] [E^G] | [FA]3 [CA] [DB][CA] | [_Ec]4 [EF]2 | [DF]3 [DE] [DG][_DF] | %12
w: A- bove the|clouds, a- bove the|stars, That|heav’n- ly re- gion|
w: ||||
w: ||||
 [CA]3 [FA] [EB][_Ec] | [Dd]3 [EG] [FA][EB] | [Fc]4 [Fd]2 | [Fc]3 [FA] [EA][EG] | F3 |] %17
w: fair, Where He, our|Lord and Sav- ior,|dwells, Our|home, our home is|there.|
w: |||||
w: |||||
V:2
 x3 | x6 | x6 | x6 | x6 | x12 | x6 | x3 || x3 | x6 | x6 | x6 | x6 | x6 | x6 | x6 | F3 |] %17
V:3
 z3 | (z C, F,) z3 | (z C, F,) z3 | (z [G,B,] [G,B,]) z3 | (F,C, F,,) z3 | %5
w: ||||~ * *|
 (z G, C) z3 (z C,F,) z3 | z D, G, z3 | z G, C || z2 [C,C] | [F,C][F,C] [F,C] z2 F, | %10
w: |||A-|bove the clouds, a-|
 [A,,F,][A,,F,] [A,,F,]2 [A,,F,]2 | [B,,F,]3 [B,,F,] [B,,B,][B,,F,] | [F,,F,]3 z2 [A,,F,] | %13
w: the stars, * *|||
 ([B,,F,][B,,F,] [B,,F,]) z2 [B,,G,] | ([A,,F,][A,,F,] [A,,F,]2) [=B,,_A,]2 | %15
w: ||
 [C,A,]3 [C,C] [C,C][C,B,] | [F,A,]3 |] %17
w: ||
V:4
 x3 | F,,3 x3 | F,,3 x3 | C,3 x3 | x6 | C,3 x2 F,,3 x4 | G,,3 x3 | C,3 || x3 | x5 F, | x6 | x6 | %12
w: |~|~|~||~ ~|~|~||bove|||
 x6 | x6 | x6 | x6 | x3 |] %17
w: |||||

